public/assets/media/icons/cloudloadbalancers.svg

<svg width="400" height="400" viewBox="0 0 400 400" fill="none" xmlns="http://www.w3.org/2000/svg">
<rect width="400" height="400" fill="white"/>
<path d="M191.945 234.955C195.303 229.139 203.698 229.139 207.056 234.955L240.427 292.756C243.785 298.572 239.588 305.843 232.872 305.843H166.129C159.413 305.843 155.215 298.572 158.573 292.756L191.945 234.955Z" fill="#DAD8FF"/>
<path d="M50.7715 236.894C50.0958 232.529 53.0866 228.442 57.4515 227.767L339.102 184.168C343.467 183.492 347.553 186.483 348.229 190.848V190.848C348.904 195.213 345.914 199.299 341.549 199.975L59.8984 243.574C55.5335 244.249 51.4472 241.259 50.7715 236.894V236.894Z" fill="#DAD8FF"/>
<path fill-rule="evenodd" clip-rule="evenodd" d="M57.7246 128.806C52.9062 128.806 49 132.712 49 137.53V147.709C49 147.857 49.0037 148.004 49.011 148.15C49.0037 148.296 49 148.443 49 148.591V188.519C49 193.338 52.9062 197.244 57.7246 197.244H124.614C129.432 197.244 133.338 193.338 133.338 188.519V148.591C133.338 143.772 129.432 139.866 124.614 139.866H77.0089L75.3502 134.81C74.1748 131.228 70.8308 128.806 67.0603 128.806H57.7246Z" fill="#6E62C4"/>
<path fill-rule="evenodd" clip-rule="evenodd" d="M57.7246 128.806C52.9062 128.806 49 132.712 49 137.53V147.709C49 147.857 49.0037 148.004 49.011 148.15C49.0037 148.296 49 148.443 49 148.591V188.519C49 193.338 52.9062 197.244 57.7246 197.244H124.614C129.432 197.244 133.338 193.338 133.338 188.519V148.591C133.338 143.772 129.432 139.866 124.614 139.866H77.0089L75.3502 134.81C74.1748 131.228 70.8308 128.806 67.0603 128.806H57.7246Z" fill="url(#paint0_linear)"/>
<path fill-rule="evenodd" clip-rule="evenodd" d="M274.387 93.907C269.568 93.907 265.662 97.8131 265.662 102.632V112.81C265.662 112.958 265.666 113.105 265.673 113.251C265.666 113.397 265.662 113.544 265.662 113.692V153.621C265.662 158.439 269.568 162.345 274.387 162.345H341.275C346.094 162.345 350 158.439 350 153.621V113.692C350 108.874 346.094 104.968 341.275 104.968H293.671L292.012 99.9118C290.837 96.3292 287.493 93.907 283.722 93.907H274.387Z" fill="#6E62C4"/>
<path fill-rule="evenodd" clip-rule="evenodd" d="M274.387 93.907C269.568 93.907 265.662 97.8131 265.662 102.632V112.81C265.662 112.958 265.666 113.105 265.673 113.251C265.666 113.397 265.662 113.544 265.662 113.692V153.621C265.662 158.439 269.568 162.345 274.387 162.345H341.275C346.094 162.345 350 158.439 350 153.621V113.692C350 108.874 346.094 104.968 341.275 104.968H293.671L292.012 99.9118C290.837 96.3292 287.493 93.907 283.722 93.907H274.387Z" fill="url(#paint1_linear)"/>
<path fill-rule="evenodd" clip-rule="evenodd" d="M199.974 155.457C194.929 155.389 189.547 158.113 186.071 164.47C185.108 166.232 182.899 166.879 181.137 165.916C179.376 164.952 178.729 162.744 179.692 160.982C184.356 152.451 192.125 148.08 200.072 148.187C207.987 148.293 215.572 152.837 219.908 161.025C220.848 162.799 220.171 164.999 218.397 165.939C216.623 166.878 214.423 166.202 213.483 164.427C210.305 158.426 205.053 155.525 199.974 155.457Z" fill="#2B175C"/>
<path fill-rule="evenodd" clip-rule="evenodd" d="M232.535 148.019C217.925 122.066 182.868 120.791 167.017 148.062C166.008 149.798 163.783 150.387 162.048 149.378C160.312 148.369 159.723 146.144 160.731 144.409C179.465 112.179 221.557 113.698 238.871 144.452C239.856 146.202 239.236 148.418 237.486 149.403C235.737 150.388 233.52 149.768 232.535 148.019Z" fill="#2B175C"/>
<defs>
<linearGradient id="paint0_linear" x1="55.813" y1="121.875" x2="168.612" y2="139.364" gradientUnits="userSpaceOnUse">
<stop stop-color="#584DCB"/>
<stop offset="1" stop-color="#6C8CFE"/>
</linearGradient>
<linearGradient id="paint1_linear" x1="272.475" y1="86.9765" x2="385.274" y2="104.465" gradientUnits="userSpaceOnUse">
<stop stop-color="#584DCB"/>
<stop offset="1" stop-color="#6C8CFE"/>
</linearGradient>
</defs>
</svg>

<?xml version="1.0" encoding="utf-8"?>
<!-- Generator: Adobe Illustrator 23.0.1, SVG Export Plug-In . SVG Version: 6.00 Build 0)  -->
<svg version="1.1" id="Layer_1" xmlns="http://www.w3.org/2000/svg" xmlns:xlink="http://www.w3.org/1999/xlink" x="0px" y="0px"
	 viewBox="0 0 400 400" style="enable-background:new 0 0 400 400;" xml:space="preserve">
<style type="text/css">
	.st0{fill:#DAD8FF;}
	.st1{fill-rule:evenodd;clip-rule:evenodd;fill:#6E62C4;}
	.st2{fill-rule:evenodd;clip-rule:evenodd;fill:url(#SVGID_1_);}
	.st3{fill-rule:evenodd;clip-rule:evenodd;fill:url(#SVGID_2_);}
	.st4{fill-rule:evenodd;clip-rule:evenodd;fill:#2B175C;}
</style>
<path class="st0" d="M191.9,235c3.4-5.8,11.8-5.8,15.1,0l33.4,57.8c3.4,5.8-0.8,13.1-7.6,13.1h-66.7c-6.7,0-10.9-7.3-7.6-13.1
	L191.9,235z"/>
<path class="st0" d="M50.8,236.9c-0.7-4.4,2.3-8.5,6.7-9.1l281.7-43.6c4.4-0.7,8.5,2.3,9.1,6.7l0,0c0.7,4.4-2.3,8.5-6.7,9.1
	L59.9,243.6C55.5,244.2,51.4,241.3,50.8,236.9L50.8,236.9z"/>
<path class="st1" d="M57.7,128.8c-4.8,0-8.7,3.9-8.7,8.7v10.2c0,0.1,0,0.3,0,0.4c0,0.1,0,0.3,0,0.4v39.9c0,4.8,3.9,8.7,8.7,8.7h66.9
	c4.8,0,8.7-3.9,8.7-8.7v-39.9c0-4.8-3.9-8.7-8.7-8.7H77l-1.7-5.1c-1.2-3.6-4.5-6-8.3-6H57.7z"/>
<linearGradient id="SVGID_1_" gradientUnits="userSpaceOnUse" x1="49.737" y1="238.9368" x2="162.536" y2="221.4478" gradientTransform="matrix(1 0 0 -1 0 400)">
	<stop  offset="0" style="stop-color:#584DCB"/>
	<stop  offset="1" style="stop-color:#6C8CFE"/>
</linearGradient>
<path class="st2" d="M57.7,128.8c-4.8,0-8.7,3.9-8.7,8.7v10.2c0,0.1,0,0.3,0,0.4c0,0.1,0,0.3,0,0.4v39.9c0,4.8,3.9,8.7,8.7,8.7h66.9
	c4.8,0,8.7-3.9,8.7-8.7v-39.9c0-4.8-3.9-8.7-8.7-8.7H77l-1.7-5.1c-1.2-3.6-4.5-6-8.3-6H57.7z"/>
<path class="st1" d="M274.4,93.9c-4.8,0-8.7,3.9-8.7,8.7v10.2c0,0.1,0,0.3,0,0.4c0,0.1,0,0.3,0,0.4v39.9c0,4.8,3.9,8.7,8.7,8.7h66.9
	c4.8,0,8.7-3.9,8.7-8.7v-39.9c0-4.8-3.9-8.7-8.7-8.7h-47.6l-1.7-5.1c-1.2-3.6-4.5-6-8.3-6H274.4z"/>
<linearGradient id="SVGID_2_" gradientUnits="userSpaceOnUse" x1="266.3993" y1="273.8357" x2="379.1983" y2="256.3472" gradientTransform="matrix(1 0 0 -1 0 400)">
	<stop  offset="0" style="stop-color:#584DCB"/>
	<stop  offset="1" style="stop-color:#6C8CFE"/>
</linearGradient>
<path class="st3" d="M274.4,93.9c-4.8,0-8.7,3.9-8.7,8.7v10.2c0,0.1,0,0.3,0,0.4c0,0.1,0,0.3,0,0.4v39.9c0,4.8,3.9,8.7,8.7,8.7h66.9
	c4.8,0,8.7-3.9,8.7-8.7v-39.9c0-4.8-3.9-8.7-8.7-8.7h-47.6l-1.7-5.1c-1.2-3.6-4.5-6-8.3-6H274.4z"/>
<path class="st4" d="M200,155.5c-5-0.1-10.4,2.7-13.9,9c-1,1.8-3.2,2.4-4.9,1.4c-1.8-1-2.4-3.2-1.4-4.9c4.7-8.5,12.4-12.9,20.4-12.8
	c7.9,0.1,15.5,4.7,19.8,12.8c0.9,1.8,0.3,4-1.5,4.9c-1.8,0.9-4,0.3-4.9-1.5C210.3,158.4,205.1,155.5,200,155.5z"/>
<path class="st4" d="M232.5,148c-14.6-26-49.7-27.2-65.5,0c-1,1.7-3.2,2.3-5,1.3c-1.7-1-2.3-3.2-1.3-5c18.7-32.2,60.8-30.7,78.1,0
	c1,1.8,0.4,4-1.4,5C235.7,150.4,233.5,149.8,232.5,148z"/>
</svg>
